X:1
T:Title
%%score [ 1 2 3 4 ]
L:1/8
Q:1/4=170
M:3/2
K:Bb
V:1 treble nm="Soprano" snm="S"
V:2 treble nm="Alto" snm="A"
V:3 treble-8 nm="Tenor" snm="T"
V:4 bass nm="Bass" snm="B"
V:1
 F4 | (B4 A4) G4 | (A4 G4) F4 | F8 =E4 | F8 A4 | B8 G4 | (d3 c B4) B4 | (F4 G4) F4 | F8 F4 | %9
w: Come|let _ us|sing _ un-|to the|Lord, And|praise his|name _ _ with|one _ ac-|cord; In|
 (B4 A2 G2) F4 | (G3 A B4) F4 | F4 G4 (3(F2 G2 A2) | B8 B4 | (F4 G4) F4 | (B4 A4) F4 | %15
w: this _ _ de-|sign _ _ one|cho- * rus _ _|raise, From|east _ to|west _ his|
 (F4 G4) (F2 B2) | A8 F4 | (F4 G4) B4 | (c4 B4) d4 | (B4 F4) =E4 | F8 F4 | B8 d4 | (G4 c4) B4 | %23
w: praise _ pro- *|claim, From|pole _ to|pole _ ex-|tol _ his|fame, The|skies shall|e- * cho|
 (A2 G2 F4) F4 | F8 |] %25
w: back _ _ his|praise.|
V:2
 B,4 | D8 C4 | D8 C4 | D8 C4 | C8 C4 | D8 C4 | (F4 E4) D4 | (D4 E4) C4 | D8 D4 | %9
w: Come|let us|sing un-|to the|Lord, And|praise his|name _ with|one _ ac-|cord; In|
 (B,4 C4) (D2 B,2) | (C4 F4) F4 | (D4 E4) C4 | D8 D4 | (D4 E4) C4 | D8 B,4 | B,8 (C2 D2) | C8 D4 | %17
w: this _ de- *|sign _ one|cho- * rus|raise, From|east _ to|west his|praise pro- *|claim, From|
 (D4 E4) F4 | (C3 D E4) F4 | (B,3 C D2 B,2) C4 | D8 D4 | (D3 C B,4) F4 | (B,4 C4) D4 | %23
w: pole _ to|pole _ _ ex-|tol _ _ _ his|fame, The|skies _ _ shall|e- * cho|
 (D4 E2 D2) C4 | D8 |] %25
w: back _ _ his|praise.|
V:3
 F4 | F8 E4 | (D4 B4) A4 | (B6 A2) G4 | F8 F4 | F8 E4 | (D4 G4) F4 | (B3 A G4) A4 | B8 B4 | %9
w: Come|let us|sing _ un-|to _ the|Lord, And|praise his|name _ with|one _ _ ac-|cord; In|
 (d4 c4) B4 | (e4 d4) c4 | (B4 c2 B2) (A2 G2) | F8 B4 | B8 (A2 G2) | F8 F4 | (D4 E2 D2) (C2 B,2) | %16
w: this _ de-|sign _ one|cho- * * rus _|raise, From|east to _|west his|praise _ _ pro- *|
 F8 B4 | (F4 c4) B4 | (A4 G4) F4 | (G4 F4) (G2 A2) | B8 B4 | (F4 G4) F4 | (B4 e4) (d2 c2) | %23
w: claim, From|pole _ to|pole _ ex-|tol _ his _|fame, The|skies _ shall|e- * cho _|
 (B4 c2 B2) A4 | B8 |] %25
w: back _ _ his|praise.|
V:4
 B,,4 | (B,,3 C, D,4) E,4 | (F,4 G,4) F,4 | B,,8 C,4 | F,,8 F,,4 | B,,8 C,4 | (B,,4 E,4) D,4 | %7
w: Come|let _ _ us|sing _ un-|to the|Lord, And|praise his|name _ with|
 (B,,4 E,4) F,4 | B,,8 B,,4 | (B,,4 F,2 E,2) D,4 | (C,4 B,,4) A,,4 | (B,,4 C,4) F,,4 | B,,8 B,,4 | %13
w: one _ ac-|cord; In|this _ _ de-|sign _ one|cho- * rus|raise, From|
 (B,,4 E,4) F,4 | (B,,3 C, D,4) D,4 | (B,,4 C,2 B,,2) (A,,2 G,,2) | F,,8 B,,4 | (D,4 C,4) B,,4 | %18
w: east _ to|west _ _ his|praise _ _ pro- *|claim, From|pole _ to|
 (F,4 E,4) D,4 | (E,4 D,4) C,4 | B,,8 B,,4 | (D,4 E,4) D,4 | (E,3 D, C,4) B,,4 | %23
w: pole _ ex-|tol _ his|fame, The|skies _ shall|e- * * cho|
 (D,2 E,2 F,4) F,,4 | B,,8 |] %25
w: back _ _ his|praise.|

